X:1
T:Marching to Zion
T:Marching to Zion
T:Robert Lowry, 1867
T:Isaac Watts, 1707
T:Public Domain Courtesy of the Cyber Hymnal™
T:Public Domain Courtesy of the Cyber Hymnal™
C:Robert Lowry, 1867
Z:Public Domain
Z:Courtesy of the Cyber Hymnal™
%%score ( 1 2 ) 3
L:1/8
Q:1/4=115
M:6/8
K:F
V:1 treble 
V:2 treble 
V:3 bass 
V:1
 [CF] | [FA]3 [CF]3 | (CD)[CE] [CF]2 [EG] | [FA]2 [CF] ([Ac][GB])[FA] | [EG]3- [EG]2 [EG] | %5
w: 1.~Come,|we that|love * the Lord, And|let our joys * be|known; * Join|
w: 2.~The|sor- rows|of * the mind Be|ban- ished from * the|place; * Re-|
w: 3.~Let|those re-|fuse * to sing, Who|nev- er knew * our|God; * But|
w: 4.~The|God that|rules * on high, And|thun- ders when * He|please, * Who|
w: 5.~This|aw- ful|God * is ours, Our|Fa- ther and * our|Love; * He|
w: 6.~There|we shall|see * His face, And|nev- er, nev- * er|sin! * There,|
w: 7.~The|hill of|Zi- * on yields A|thou- sand sac- * red|sweets * Be-|
w: 8.~Then|let our|songs * a- bound, And|ev- ery tear * be|dry; * We’re|
 [FA]2 [FA] [FB]2 [FB] | [DG]2 [DF] D2 [CF] | [EG]2 [EG] [FA]2 [EG] | [DF]2 [=B,D] C2 C | %9
w: in a song with|sweet ac- cord, Join|in a song with|sweet ac- cord And|
w: li- gion nev- er|was de- signed Re-|li- gion nev- er|was de- signed, To|
w: favor- ites of the|heaven- ly King, But|favor- ites of the|heaven- ly King May|
w: rides up- on the|storm- y sky, Who|rides up- on the|storm- y sky, And|
w: will send down his|heav’n- ly powers, He|will send down his|heav’n- ly powers, To|
w: from the riv- ers|of His grace, There,|from the riv- ers|of His grace, Drink|
w: fore we reach the|heav’n- ly fields, Be-|fore we reach the|heav’n- ly fields, Or|
w: march- ing through Im-|man- uel’s ground, We’re|march- ing through Im-|man- uel’s ground, To|
 [CF]3 [EG]3 | [FA]2 [Ac] [GB]2 [DG] | [CF]2 [CF] [CG]2 [CE] | [CF]3- [CF]2 ||"^Refrain" [FA] | %14
w: thus sur-|round the throne, And|thus sur- round the|throne. *||
w: make our|plea- sures less, To|make our plea- sures|less. *||
w: speak their|joys a- broad, May|speak their joys a-|broad. *||
w: man- ag-|es the seas, And|man- ag- es the|seas. *||
w: car- ry|us a- bove, To|car- ry us a-|bove. *||
w: end- less|plea- sures in, Drink|end- less plea- sures|in. *|We’re|
w: walk the|gold- en streets, Or|walk the gold- en|streets. *||
w: fair- er|worlds on high, To|fair- er worlds on|high. *||
 [Ac]3 [FA]2 [FA] | [FA]3 [CF]3 | [FA]>[CG][CF] [Fc]>[FB][FA] | [EG]3 [Ec]2 [GB] | %18
w: ||||
w: ||||
w: ||||
w: ||||
w: ||||
w: march- ing to|Zi- on,|Beau- ti- ful, beau- ti- ful|Zi- on; We’re|
w: ||||
w: ||||
 [FA]2 [FA] [FA][FB][Fc] | [Fd]3 (dc)[GB] | [FA]>[FA][FA] [EG]<[EG][EG] | F4- F |] %22
w: ||||
w: ||||
w: ||||
w: ||||
w: ||||
w: march- ing up- ward to|Zi- on, * The|beau- ti- ful ci- ty of|God. *|
w: ||||
w: ||||
V:2
 x | x6 | C2 x4 | x6 | x6 | x6 | x3 D2 x | x6 | x3 C2 C | x6 | x6 | x6 | x5 || x | x6 | x6 | x6 | %17
 x6 | x6 | x3 dc x | x6 | F4- F |] %22
V:3
 [F,A,] | [F,C]3 [F,,A,]3 | [C,B,]2 [C,B,] [F,A,]2 [C,C] | [F,C]2 [F,A,] [F,C]2 [F,C] | %4
 [C,C]3- [C,C]2 [C,C] | [F,C]2 [F,C] [F,D]2 [F,C] | [B,,B,]2 [B,,B,] [B,,F,]2 [F,,A,] | %7
 [C,C]2 [C,C] [C,C]2 [C,G,] | [G,,G,]2 [G,,F,] [C,E,]2 [F,A,] | [F,A,]2 [F,A,] [C,C]2 [C,C] | %10
 [F,C]2 [F,C] [B,,D]2 [B,,B,] | [C,A,]3 [C,B,]3 | [F,,A,]3- [F,,A,]2 || [F,C] | %14
 [F,C]2 [F,C] [F,C]2 [F,C] | [F,C]3 [F,A,]3 | [F,C]>[F,B,][F,A,] [F,A,]>[F,D][F,C] | %17
 [C,C]3 [C,G,]2 [C,C] | [F,C]2 [F,C] [F,C][F,B,][F,A,] | [B,,B,]2 [B,,B,] ([B,,B,][A,,C])[B,,D] | %20
 [C,C]>[C,C][C,C] [C,B,]<[C,B,][C,B,] | [F,,A,]4- [F,,A,] |] %22

